!!!OTL: Cha tian ge
!!!ARE: Asia, China,ÿHunan, Shaoshan
!! I, 546
!!!SCT: C1470
!!!YEM: Copyright 1995, estate of Helmut Schaffrath.
**kern
*ICvox
*Ivox
!! Mixed meters:  2/4; 3/4; 4/4
*M3/4
*k[f#c#g#d#]
*E:
{8gg#
8ee
=1
4ff#
8ee
8gg#
=2
4ff#
16ff#
8.ff#
=3
16gg#
16ff#
16ee
16cc#
2b}
=4
*M2/4
{16ee
16gg#
8cc#
16ee
16ee
[8ff#
=5
*M3/4
8ff#]
16gg#
16ff#
2ee}
=6
*M4/4
{2ee
16ee
16gg#
4.ff#
=7
16gg#
16ff#
16ee
16cc#
4.b
8cc#
16ee
32cc#
32ee
[8ff#
=8
*M3/4
8.ff#]
16ee
2ee}
=9
{8gg#
16ee
16ee
=10
*M2/4
4ff#
8gg#
16ee
16ee
=11
4ff#}
{16ff#
8.ff#
=12
16gg#
16ff#
16ee
16cc#
[4b
=13
*M3/4
8b]
8cc#
8ee
8cc#
8ee
8ff#}
=14
*M4/4
{4.b
8cc#
2ee
=15
*M2/4
4r
8.bb
16gg#
=16
*M4/4
4.ff#
8ee
8ff#
4.r}
=17
{4.b
8cc#
16ee
32cc#
32ee
4ff#
8ee
=18
*M3/4
8.cc#
16b
2b}
=19
{8ee
8ee
=20
*M2/4
4ff#
8gg#
8ee
=21
4ff#}
{16ff#
8.ff#
=22
*M3/4
16gg#
16ff#
16ee
16cc#
4.b
16ee
16cc#
=23
*M2/4
16ee
16ee
8cc#
16ee
16ee
[8ff#
=24
*M3/4
8ff#]
16gg#
16ff#
2ee}
=25
*M4/4
{2ee
16ee
16gg#
4.ff#
=26
16gg#
16ff#
16ee
16cc#
4.b
8cc#
16ee
32cc#
32ee
[8ff#
=27
*M3/4
8.ff#]
16ee
2ee}
=28
{8ee
8ee
=29
*M2/4
4ff#
8gg#
8ee
=30
4ff#
16ff#
8.ff#
=31
*M3/4
16g#
16ff#
16ee
16cc#
4.b}
{16ee
16cc#
=32
*M2/4
16ee
16ee
8cc#
16ee
16ee
[8ff#
=33
*M3/4
8ff#]
16gg#
16ff#
2ee}
=34
*M4/4
{2ee
16gg#
16ff#
4.ff#
=35
16gg#
16ff#
16ee
16cc#
4.b
8cc#
16ee
32cc#
32ee
[8ff#
=36
*M3/4
8.ff#]
16ee
2ee}
=37
{8ee
8ee
=38
*M2/4
4ff#
8ee
8gg#
=39
*M4/4
4ff#}
{16ff#
8.ff#
16gg#
16ff#
16ee
16cc#
[4b
=40
*M3/4
8b]
8cc#
8ee
8cc#
8ee
8ff#}
=41
*M4/4
{4.b
8cc#
2ee
=42
*M2/4
4r
8.bb
16gg#
=43
*M4/4
4.ff#
8ee
8ff#
4.r}
=44
{4.b
8cc#
16ee
32cc#
32ee
[8ff#
8.ff#]
16ee
=45
8.cc#
16b
2b}
==
!!!AGN: Shange, Tiange. Nongtian laodong chang
!!!ONB: ESAC (Essen Associative Code) Database: HUANG
!!!AMT: irregular
!!!AIN: vox
!!!EED: Helmut Schaffrath
!!!EEV: 1.0
*-
!!!ONB: Tied note syntax fixed by Craig Sapp, 2004/05/03/
